assets/logo.svg

<svg fill="none" height="36" viewBox="0 0 44 36" width="44" xmlns="http://www.w3.org/2000/svg"><g fill="#131117"><path d="m43.4977 4.64047c-1.0897 1.06972-2.1377 2.09784-3.1879 3.12954-.5193-.4644-1.084-1.02316-1.7008-1.51083-.8133-.6421-1.7079-1.0955-2.7616-1.12124-1.0131-.0245-1.824.37005-2.3689 1.26095-1.3431 2.18968-2.6524 4.40151-3.9826 6.59971-1.788 2.9544-3.5423 5.932-5.3837 8.8484-2.5455 4.0303-6.2435 5.7163-10.7465 5.6575-2.628-.0343-5.08408-.6666-7.25427-2.2988-.31019-.234-.60529-.4913-.98984-.8038v11.0981c-1.56725 0-3.06944 0-4.62159 0 0-11.6312 0-23.277 0-34.963269h4.59371v3.184719c.36364-.29899.63782-.53549.92362-.75605 2.68955-2.088025 5.71947-2.738689 8.99337-2.364955 4.495.513425 7.6934 2.994785 9.8032 7.151195.2126.41912.1766.71808-.0732 1.10286-1.034 1.5954-2.0331 3.2141-3.016 4.7765-.287-1.0869-.517-2.2082-.8771-3.2803-1.0003-2.974-3.202-4.47754-5.9902-5.05344-4.7936-.99009-9.12123 2.59409-9.72768 7.70624-.5379 4.5302 2.47809 8.9991 6.74188 9.7417 3.4598.6016 6.4235-.5649 8.5101-3.5965 1.6543-2.4041 3.1205-4.9541 4.6587-7.4464 1.5696-2.54512 3.1927-5.05717 4.6692-7.66103 1.982-3.493514 6.0518-4.297355 9.2572-2.87226 1.7218.76463 3.1403 1.97161 4.5309 3.47146z"/><path d="m27.2832 23.7909c.1639-.2022 2.7616-3.991 2.8824-4.1393.6774.6776 1.2803 1.3699 1.9681 1.9495 1.1211.9448 2.406 1.4031 3.8432.9901 1.1722-.3369 2.0691-1.0869 2.3479-2.3735.2859-1.3172-.2486-2.3478-1.2942-3.0891-.352-.25-.9759-.6654-1.3465-.8835-.4124-.2892-1.6602-1.0379-2.8557-1.7584-.9538-.6556-1.1153-.6887-1.7264-1.1261.84-1.3982 1.6521-2.7498 2.3933-3.98365 1.3349.82835 2.6501 1.58435 3.9047 2.43965 1.2269.8369 2.5339 1.6236 3.5586 2.6958 2.8754 3.0083 2.4758 8.2394-.7179 11.0234-2.8093 2.4482-7.1369 2.5426-10.4282.2267-.9934-.6985-.8842-.5478-2.5293-1.9716z"/></g></svg>

<svg width="44" height="36" viewBox="0 0 44 36" fill="none" xmlns="http://www.w3.org/2000/svg">
<path d="M43.4977 4.64047C42.408 5.71019 41.36 6.73831 40.3098 7.77001C39.7905 7.30561 39.2258 6.74685 38.609 6.25918C37.7957 5.61708 36.9011 5.16368 35.8474 5.13794C34.8343 5.11344 34.0234 5.50799 33.4785 6.39889C32.1354 8.58857 30.8261 10.8004 29.4959 12.9986C27.7079 15.953 25.9536 18.9306 24.1122 21.847C21.5667 25.8773 17.8687 27.5633 13.3657 27.5045C10.7377 27.4702 8.28162 26.8379 6.11143 25.2057C5.80124 24.9717 5.50614 24.7144 5.12159 24.4019C5.12159 28.1478 5.12159 31.8055 5.12159 35.5C3.55434 35.5 2.05215 35.5 0.5 35.5C0.5 23.8688 0.5 12.223 0.5 0.536731C2.01381 0.536731 3.53111 0.536731 5.09371 0.536731C5.09371 1.56849 5.09371 2.58186 5.09371 3.72145C5.45735 3.42246 5.73153 3.18596 6.01733 2.9654C8.70688 0.877375 11.7368 0.226711 15.0107 0.600445C19.5057 1.11387 22.7041 3.59523 24.8139 7.75164C25.0265 8.17076 24.9905 8.46972 24.7407 8.8545C23.7067 10.4499 22.7076 12.0686 21.7247 13.631C21.4377 12.5441 21.2077 11.4228 20.8476 10.3507C19.8473 7.3767 17.6456 5.87316 14.8574 5.29726C10.0638 4.30717 5.73617 7.89135 5.12972 13.0035C4.59182 17.5337 7.60781 22.0026 11.8716 22.7452C15.3314 23.3468 18.2951 22.1803 20.3817 19.1487C22.036 16.7446 23.5022 14.1946 25.0404 11.7023C26.61 9.15718 28.2331 6.64513 29.7096 4.04127C31.6916 0.547756 35.7614 -0.256085 38.9668 1.16901C40.6886 1.93364 42.1071 3.14062 43.4977 4.64047Z" fill="#131117"/>
<path d="M27.2832 23.7909C27.4471 23.5887 30.0448 19.7999 30.1656 19.6516C30.843 20.3292 31.4459 21.0215 32.1337 21.6011C33.2548 22.5459 34.5397 23.0042 35.9769 22.5912C37.1491 22.2543 38.046 21.5043 38.3248 20.2177C38.6107 18.9005 38.0762 17.8699 37.0306 17.1286C36.6786 16.8786 36.0547 16.4632 35.6841 16.2451C35.2717 15.9559 34.0239 15.2072 32.8284 14.4867C31.8746 13.8311 31.7131 13.798 31.102 13.3606C31.942 11.9624 32.7541 10.6108 33.4953 9.37695C34.8302 10.2053 36.1454 10.9613 37.4 11.8166C38.6269 12.6535 39.9339 13.4402 40.9586 14.5124C43.834 17.5207 43.4344 22.7518 40.2407 25.5358C37.4314 27.984 33.1038 28.0784 29.8125 25.7625C28.8191 25.064 28.9283 25.2147 27.2832 23.7909Z" fill="#131117"/>
</svg>
